X:146
T:San Antonio Rose
C:David McLaughlin from Yessir! CD
N:TablEdited by Larry Tanner
L:1/8
Q:1/4=220
M:4/4
K:C
z2 A2 B2 d2 | {f}"D"^f3a fd BA | AB AG ^FD EF | "G"G^F GA BG FG | "E"E2 E3A BA | 
{c}"A"^c3e cA cA | B2 ^c2 B2 c2 | "D"A2 ^F2 A2 d2 | A2 ^F2 A2 d2 | "D"f^f =f^f ed B^c | 
dA cB A^F EF | "G"G^F GB AG FG | "E"E^F ED ^CA, B,C | "A"A,2 B,C ^CE ^FE | A3B A^F EF | 
"D"D3F ^FA BA | d4 A2 G2 | ^F3E F2 A2 | d2 dd2D E^F | "G"G3A B2 G2 | "E"E4 e2 d2 | 
"A"^cc cc ce cB | A2 ^c2 B2 c2 | "D"A2 ^F2 A2 d2 | A2 ^F2 A2 d2 | ^F3E F2 A2 | 
d2 dd dD E^F | "G"G^F GA BG FG | "E"E4 e2 d2 | "A"^cc cc ce cB | A2 ^c2 B2 c2 | 
"D"A2 dd dd dd | z2 ^c2 d2 ^d2 | "A"ee ee e^f e2 | d2 ^c3e ^fe | "E"^gg gb2e ge | 
^f2 ff fe fe | ^gg gb2e ge | ^f2 ^g2 f2 g2 | "A"e2 ^c2 e2 a2 | e2 ^c2 d2 ^d2 | 
ee ee e^f e2 | d2 ^cc ce ^fe | "E"^gg gb2e g=g | ^f2 ff fe fe | ^gg gb2e g=g | 
^f2 ^g2 f2 e2 | "A"e2 ^c2 e2 ^f2 | "A7"g^f ed ^cB AG | ^F8 | 


